X:156
T: Der Meierin Sohn
N: Q1083F
O: Mitteleuropa, Deutschland (BRD) , Rheinland, Siebengebirge
N: Melodievergleich zu Q0083A, anderes Lied.
R: Dreikoenigs - Lied, geistlich, Brauchtum
M: 3/4
L: 1/4
K: G
=F | _BBB | _B2d | dc_B | A2
_B | GGA | _BBA | GGF | G2

@@@ Tune index: 1211
